assets/images/icn-instagram.svg

<svg width="30" height="30" viewBox="0 0 30 30" fill="none" xmlns="http://www.w3.org/2000/svg">
<path d="M8.78763 0.105028C7.19163 0.180328 6.10172 0.435029 5.14892 0.809429C4.16282 1.19373 3.32702 1.70943 2.49542 2.54403C1.66382 3.37863 1.15172 4.21503 0.770124 5.20263C0.400824 6.15753 0.150624 7.24833 0.0801243 8.84523C0.00962433 10.4421 -0.00597568 10.9554 0.00182432 15.0288C0.00962432 19.1022 0.0276243 19.6128 0.105024 21.213C0.181224 22.8087 0.435024 23.8983 0.809424 24.8514C1.19432 25.8375 1.70942 26.673 2.54432 27.5049C3.37922 28.3368 4.21502 28.8477 5.20502 29.2299C6.15902 29.5986 7.25013 29.85 8.84673 29.9199C10.4433 29.9898 10.9572 30.006 15.0294 29.9982C19.1016 29.9904 19.6143 29.9724 21.2142 29.8965C22.8141 29.8206 23.898 29.565 24.8514 29.1924C25.8375 28.8066 26.6736 28.2924 27.5049 27.4572C28.3362 26.622 28.848 25.785 29.2293 24.7968C29.5989 23.8428 29.85 22.7517 29.9193 21.1563C29.9892 19.5552 30.0057 19.044 29.9979 14.9712C29.9901 10.8984 29.9718 10.3878 29.8959 8.78823C29.82 7.18863 29.5659 6.10233 29.1918 5.14863C28.8063 4.16253 28.2918 3.32763 27.4572 2.49513C26.6226 1.66263 25.785 1.15113 24.7971 0.770729C23.8425 0.401429 22.752 0.149728 21.1554 0.0807285C19.5588 0.0117285 19.0449 -0.00597151 14.9712 0.00182849C10.8975 0.00962849 10.3875 0.0270285 8.78763 0.105028ZM8.96283 27.2214C7.50033 27.1578 6.70622 26.9148 6.17702 26.7114C5.47622 26.4414 4.97702 26.115 4.44962 25.5927C3.92222 25.0704 3.59822 24.5694 3.32462 23.8701C3.11912 23.3409 2.87162 22.5477 2.80322 21.0852C2.72882 19.5045 2.71322 19.0299 2.70452 15.0252C2.69582 11.0205 2.71112 10.5465 2.78042 8.96523C2.84282 7.50393 3.08732 6.70893 3.29042 6.18003C3.56042 5.47833 3.88562 4.98003 4.40912 4.45293C4.93262 3.92583 5.43212 3.60123 6.13202 3.32763C6.66062 3.12123 7.45382 2.87583 8.91572 2.80623C10.4976 2.73123 10.9716 2.71623 14.9757 2.70753C18.9798 2.69883 19.455 2.71383 21.0375 2.78343C22.4988 2.84703 23.2941 3.08913 23.8224 3.29343C24.5235 3.56343 25.0224 3.88773 25.5495 4.41213C26.0766 4.93653 26.4015 5.43423 26.6751 6.13563C26.8818 6.66273 27.1272 7.45563 27.1962 8.91843C27.2715 10.5003 27.2886 10.9746 27.2958 14.9784C27.303 18.9822 27.2889 19.4577 27.2196 21.0384C27.1557 22.5009 26.9133 23.2953 26.7096 23.8251C26.4396 24.5256 26.1141 25.0251 25.5903 25.5519C25.0665 26.0787 24.5676 26.4033 23.8674 26.6769C23.3394 26.883 22.5453 27.129 21.0846 27.1986C19.5027 27.273 19.0287 27.2886 15.0231 27.2973C11.0175 27.306 10.5447 27.2898 8.96283 27.2214ZM21.1911 6.98313C21.1917 7.33916 21.2979 7.68702 21.4962 7.98271C21.6945 8.2784 21.976 8.50864 22.3052 8.64431C22.6344 8.77998 22.9964 8.81499 23.3454 8.74491C23.6945 8.67482 24.015 8.5028 24.2662 8.25058C24.5175 7.99837 24.6884 7.6773 24.7572 7.32798C24.826 6.97866 24.7897 6.61678 24.6528 6.28811C24.5159 5.95944 24.2846 5.67875 23.9882 5.48153C23.6918 5.2843 23.3436 5.17942 22.9875 5.18013C22.5102 5.18108 22.0529 5.37156 21.716 5.70967C21.3791 6.04778 21.1903 6.50584 21.1911 6.98313ZM7.29812 15.015C7.30652 19.269 10.7613 22.7097 15.0144 22.7016C19.2675 22.6935 22.7106 19.239 22.7025 14.985C22.6944 10.731 19.2387 7.28943 14.985 7.29783C10.7313 7.30623 7.29002 10.7616 7.29812 15.015ZM9.99992 15.0096C9.99797 14.0207 10.2893 13.0534 10.8371 12.2301C11.3849 11.4067 12.1645 10.7643 13.0774 10.384C13.9903 10.0038 14.9955 9.90278 15.9658 10.0938C16.9361 10.2848 17.828 10.7593 18.5286 11.4571C19.2293 12.155 19.7072 13.045 19.9021 14.0146C20.0969 14.9841 19.9999 15.9896 19.6233 16.904C19.2467 17.8184 18.6073 18.6006 17.7862 19.1517C16.965 19.7027 15.9988 19.9979 15.0099 19.9998C14.3533 20.0012 13.7028 19.8732 13.0956 19.6232C12.4884 19.3731 11.9365 19.0059 11.4712 18.5425C11.006 18.0791 10.6366 17.5286 10.3842 16.9224C10.1317 16.3162 10.0011 15.6663 9.99992 15.0096Z" fill="white"/>
</svg>

<?xml version="1.0" encoding="utf-8"?>
<!-- Generator: Adobe Illustrator 28.3.0, SVG Export Plug-In . SVG Version: 6.00 Build 0)  -->
<svg version="1.1" id="Layer_1" xmlns="http://www.w3.org/2000/svg" xmlns:xlink="http://www.w3.org/1999/xlink" x="0px" y="0px"
	 viewBox="0 0 30 30" style="enable-background:new 0 0 30 30;" xml:space="preserve">
<style type="text/css">
	.st0{fill:#333333;}
</style>
<path class="st0" d="M8.8,0.1C7.2,0.2,6.1,0.4,5.1,0.8c-1,0.4-1.8,0.9-2.7,1.7S1.2,4.2,0.8,5.2c-0.4,1-0.6,2-0.7,3.6
	C0,10.4,0,11,0,15s0,4.6,0.1,6.2c0.1,1.6,0.3,2.7,0.7,3.6c0.4,1,0.9,1.8,1.7,2.7s1.7,1.3,2.7,1.7c1,0.4,2,0.6,3.6,0.7
	C10.4,30,11,30,15,30c4.1,0,4.6,0,6.2-0.1c1.6-0.1,2.7-0.3,3.6-0.7c1-0.4,1.8-0.9,2.7-1.7c0.8-0.8,1.3-1.7,1.7-2.7
	c0.4-1,0.6-2,0.7-3.6C30,19.6,30,19,30,15s0-4.6-0.1-6.2c-0.1-1.6-0.3-2.7-0.7-3.6c-0.4-1-0.9-1.8-1.7-2.7c-0.8-0.8-1.7-1.3-2.7-1.7
	c-1-0.4-2-0.6-3.6-0.7C19.6,0,19,0,15,0S10.4,0,8.8,0.1z M9,27.2c-1.5-0.1-2.3-0.3-2.8-0.5c-0.7-0.3-1.2-0.6-1.7-1.1
	c-0.5-0.5-0.9-1-1.1-1.7c-0.2-0.5-0.5-1.3-0.5-2.8C2.7,19.5,2.7,19,2.7,15s0-4.5,0.1-6.1c0.1-1.5,0.3-2.3,0.5-2.8
	C3.6,5.5,3.9,5,4.4,4.5s1-0.9,1.7-1.1c0.5-0.2,1.3-0.5,2.8-0.5C10.5,2.7,11,2.7,15,2.7c4,0,4.5,0,6.1,0.1c1.5,0.1,2.3,0.3,2.8,0.5
	c0.7,0.3,1.2,0.6,1.7,1.1s0.9,1,1.1,1.7c0.2,0.5,0.5,1.3,0.5,2.8c0.1,1.6,0.1,2.1,0.1,6.1c0,4,0,4.5-0.1,6.1
	c-0.1,1.5-0.3,2.3-0.5,2.8c-0.3,0.7-0.6,1.2-1.1,1.7c-0.5,0.5-1,0.9-1.7,1.1c-0.5,0.2-1.3,0.5-2.8,0.5c-1.6,0.1-2.1,0.1-6.1,0.1
	S10.5,27.3,9,27.2z M21.2,7c0,0.4,0.1,0.7,0.3,1c0.2,0.3,0.5,0.5,0.8,0.7c0.3,0.1,0.7,0.2,1,0.1c0.3-0.1,0.7-0.2,0.9-0.5
	c0.3-0.3,0.4-0.6,0.5-0.9s0-0.7-0.1-1C24.5,6,24.3,5.7,24,5.5c-0.3-0.2-0.6-0.3-1-0.3c-0.5,0-0.9,0.2-1.3,0.5
	C21.4,6,21.2,6.5,21.2,7z M7.3,15c0,4.3,3.5,7.7,7.7,7.7c4.3,0,7.7-3.5,7.7-7.7c0-4.3-3.5-7.7-7.7-7.7S7.3,10.8,7.3,15z M10,15
	c0-1,0.3-2,0.8-2.8c0.5-0.8,1.3-1.5,2.2-1.8C14,10,15,9.9,16,10.1c1,0.2,1.9,0.7,2.6,1.4c0.7,0.7,1.2,1.6,1.4,2.6
	c0.2,1,0.1,2-0.3,2.9c-0.4,0.9-1,1.7-1.8,2.2C17,19.7,16,20,15,20c-0.7,0-1.3-0.1-1.9-0.4c-0.6-0.3-1.2-0.6-1.6-1.1
	c-0.5-0.5-0.8-1-1.1-1.6C10.1,16.3,10,15.7,10,15z"/>
</svg>
